X:1
T:Charles O'Conor
T:Charles O'Conor
T:Turlough Carolan
C:Turlough Carolan
L:1/8
M:6/8
K:D
V:1 treble 
V:1
 d2 A d2 A | BAG FAA | B/c/dd ecA | daa a2 g | fd/e/f BdB | e/d/c/c/e AcA | dcB AFA | d3 d3 |: %8
 A2 D F/G/AF | BG/A/B AF/G/A | D2 A F/G/AD | GEe c2 A | f2 f faf | faf fdB | c/d/ee eae | eae ecA | %16
 dcB AFE | FAA f2 e | dcB AFA | d3 d3 || %20

